X:1
T:In Bruton Town
M:3/2
L:1/4
K:F
 z2 z2 z G| A d c3 A| GE/2-D/2 C D2 G| A =B c2 B B| AG/2-=B/2 A2 z G|\
 A d c3 A| G E/2D/2 C D2 E|F/2-G/2 A GE/2-C/2 D D| D4 z G| A d c3 A|\
 GE/2-D/2 C D2 G| E =B/2B/2 c2 B2| AG/2-=B/2 A3 G| A d c3 A| GE/2-D/2 C D2 E|\
F/2-G/2 A GE/2-C/2 D D| D4 z2|
